icons/figma-design.svg

<svg fill="none" height="12" viewBox="0 0 12 12" width="12" xmlns="http://www.w3.org/2000/svg"><rect fill="#0c8ce9" height="12" rx="2.5" width="12"/><path clip-rule="evenodd" d="m2.0078 2.67484c-.01507-.09099-.00823-.18427.01996-.27209s.07691-.16765.14213-.23287c.06522-.06521.14505-.11394.23287-.14213s.1811-.03503.27209-.01996l1.74012.29003c.11929.01979.22941.07637.31496.16183l5.01504 5.01503c.08085.0808.14499.17674.18875.28234s.06628.21878.06628.33309c0 .1143-.02252.22749-.06628.33308-.04376.1056-.1079.20154-.18875.28234l-1.03944 1.04001c-.0808.08085-.17674.14499-.28233.18875-.1056.04376-.21878.06631-.33309.06631-.1143 0-.22749-.02255-.33309-.06631-.10559-.04376-.20153-.1079-.28233-.18875l-5.01504-5.01561c-.08566-.08548-.14245-.19561-.16241-.31497zm.57192-.09512.10093.60498.18909 1.13514.51972.51972 1.4501-1.45011-.51972-.51971-1.13514-.1891zm2.67051 1.2204-1.4501 1.4501 4.08465 4.08523c.05438.05437.12814.08492.20504.08492s.15066-.03055.20505-.08492l1.04001-1.04001c.05437-.05439.08491-.12814.08491-.20505 0-.0769-.03054-.15065-.08491-.20504l-4.08523-4.08523z" fill="#fff" fill-rule="evenodd"/></svg>

<svg width="12" height="12" viewBox="0 0 12 12" fill="none" xmlns="http://www.w3.org/2000/svg">
<rect width="12" height="12" rx="2" fill="#0C8CE9"/>
<path fill-rule="evenodd" clip-rule="evenodd" d="M2.0078 2.67485C1.99273 2.58386 1.99957 2.49058 2.02776 2.40276C2.05595 2.31494 2.10467 2.23511 2.16989 2.16989C2.23511 2.10467 2.31494 2.05595 2.40276 2.02776C2.49058 1.99957 2.58386 1.99273 2.67485 2.0078L4.41497 2.29782C4.53426 2.31762 4.64438 2.3742 4.72993 2.45965L9.74497 7.47469C9.82582 7.55549 9.88996 7.65143 9.93372 7.75702C9.97748 7.86262 10 7.97581 10 8.09011C10 8.20442 9.97748 8.3176 9.93372 8.4232C9.88996 8.52879 9.82582 8.62473 9.74497 8.70553L8.70553 9.74555C8.62473 9.8264 8.52879 9.89054 8.4232 9.9343C8.3176 9.97806 8.20442 10.0006 8.09011 10.0006C7.97581 10.0006 7.86262 9.97806 7.75702 9.9343C7.65143 9.89054 7.55549 9.8264 7.47469 9.74555L2.45965 4.72993C2.37399 4.64446 2.3172 4.53433 2.29724 4.41497L2.0078 2.67485ZM2.57972 2.57972L2.68065 3.1847L2.86974 4.31984L3.38946 4.83956L4.83956 3.38946L4.31984 2.86974L3.1847 2.68065L2.57972 2.57972ZM5.25023 3.80013L3.80013 5.25023L7.88478 9.33546C7.93916 9.38983 8.01292 9.42037 8.08982 9.42037C8.16672 9.42037 8.24048 9.38983 8.29487 9.33546L9.33488 8.29545C9.38925 8.24106 9.41979 8.1673 9.41979 8.0904C9.41979 8.0135 9.38925 7.93974 9.33488 7.88536L5.24965 3.80013H5.25023Z" fill="white"/>
</svg>
